X: 138030
T: IRISH WHISKEY
Q: "Irish Jig."
R: Jig.
%R: jig
B: James Kerr "Merry Melodies" v.1 p.38 s.0 #30
Z: 2017 John Chambers <jc:trillian.mit.edu>
M: 6/8
L: 1/8
K: G
|: uB |\
vG3 ug2ue | dBG AFD | G3 ug2ue | dBG A2B |\
G3 g2e | dBG GAB | cde dcB | cBA G2 :|
uB |\
eBe gbg | eBe gbg | eBe g2a | bag agf |\
eBe gbg | eBe g2a | bag agf | e3 d2 |]

%%sep 1 1 500
%%sep 1 1 500

